X:1
T:Isaiah, Mighty Seer
T:Isaiah, Mighty Seer
T:Martin Luther, 1526
T:Public Domain Courtesy of the Cyber Hymnal™
C:Martin Luther, 1526
Z:Public Domain
Z:Courtesy of the Cyber Hymnal™
%%score ( 1 2 ) ( 3 4 )
L:1/8
Q:1/4=115
M:4/4
K:D
V:1 treble 
V:2 treble 
V:3 bass 
V:4 bass 
V:1
 [DA]4 [DA]2 [CF]2 | [B,D]2 [A,F]2 [CA]2 [DA]2 | [DB]2 [DB]2 [DA]4 | [FA]4 [EA]2 [EG]2 | %4
 [CA]2 [B,D]2 [DG]2 [DF]2 | [DE]2 [CE]2 D4 | [DA]4 [FA]2 [EA]2 | [Dd]2 [Gd]2 [Fd]2 [FA]2 | %8
 [GB]2 [EA]2 [DF]4 | [DF]4 [EG]2 [EA]2 | [DF]2 [DG]2 [CF]2 D2 | [DE]2 [CE]2 D4 | %12
 [B,D]4 [DF]2 [CE]2 | [DF]2 [DG]2 [EA]2 [EA]2 | [DF]2 [DG]2 [EA]4 | [Fd]4 [Fd]2 [Fc]2 | %16
 [DB]2 [DA]2 [EA]2 [EG]2 | [EA]2 [EG]2 [^DF]4 | [B,E]4 [DF]2 [DG]2 | [CA]2 [DA]2 [DB]2 [DA]2 | %20
 [DB]2 [Ec]2 [Fd]4 | [FA]4 [EA]2 [DG]2 | [DF]2 [B,G]2 [A,A]2 [B,D]2 | [DF]2 [CE]2 D4 | %24
 [DF]4 [DG]2 [DA]2 | [DB]2 [DA]2 [EA]2 [DB]2 | [Ec]2 [EB]2 [CA]4 | [Dd]4 [Fc]2 [DB]2 | %28
 [Ge]2 [Ad]2 [Ec]2 [FA]2 | [FB]2 [Ac]2 [Fd]4 | [Fd]4 [Ec]2 [DB]2 | [CA]2 [DB]2 [Ec]2 [FA]2 | %32
 [DG]2 [EA]2 [DF]4 | [Fd]4 [Fc]2 [DB]2 | [FA]2 [FB]2 [Ac]2 [FA]2 | [EG]2 [EA]2 [DF]4 | %36
 [Fd]4 [Fc]2 [DB]2 | [DA]2 [DB]2 [Ec]2 [FA]2 | [DG]2 [EA]2 [^DF]4 | [DB]4 [DA]2 [EG]2 | %40
 [CA]2 D2 [DG]2 [DF]2 | [DE]2 [CE]2 D4 | D4 [CA]2 [EA]2 | [DF]2 [DG]2 [DA]2 [DB]2 | %44
 [DB]2 [CA]2 [DA]4 | [CA]4 [DG]2 [DF]2 | [B,G]2 [CE]2 [DF]2 [B,E]2 | [A,D]2 [A,C]2 [A,D]4 |] %48
V:2
 x8 | x8 | x8 | x8 | x8 | x4 D4 | x8 | x8 | x8 | x8 | x6 D2 | x4 D4 | x8 | x8 | x8 | x8 | x8 | x8 | %18
 x8 | x8 | x8 | x8 | x8 | x4 D4 | x8 | x8 | x8 | x8 | x8 | x8 | x8 | x8 | x8 | x8 | x8 | x8 | x8 | %37
 x8 | x8 | x8 | x2 D2 x4 | x4 D4 | D4 x4 | x8 | x8 | x8 | x8 | x8 |] %48
V:3
 [D,F,]4 [D,F,]2 [A,,A,]2 | [B,,F,]2 D,2 [A,,E,]2 [F,,A,]2 | [G,,G,]2 [B,,G,]2 [D,F,]4 | %3
 [D,A,]4 [C,A,]2 [E,B,]2 | [A,,A,]2 [B,,F,]2 [G,,B,]2 [D,A,]2 | [A,,A,]2 [A,,E,]2 [D,F,]4 | %6
 [D,F,]4 [D,A,]2 [A,C]2 | [F,A,]2 [G,B,]2 [D,A,]2 [D,D]2 | [G,,D]2 [A,,C]2 [D,A,]4 | %9
 [B,,B,]4 [E,B,]2 [C,A,]2 | [D,A,]2 [G,,B,]2 [A,,A,]2 [B,,F,]2 | [A,,A,]2 [A,,A,]2 [D,F,]4 | %12
 [G,,G,]4 [D,A,]2 [A,,A,]2 | [D,A,]2 [B,,B,]2 [A,,C]2 [C,A,]2 | [D,A,]2 [B,,B,]2 [A,,C]4 | %15
 [D,A,]4 [B,,B,]2 [F,A,]2 | G,2 [D,F,]2 [B,,A,]2 [E,B,]2 | [A,,C]2 [E,B,]2 [B,,B,]4 | %18
 [E,G,]4 [D,A,]2 [B,,G,]2 | [A,,E,]2 [D,F,]2 G,2 [D,F,]2 | [B,,F,]2 [A,,A,]2 [D,A,]4 | %21
 [D,D]4 [A,,C]2 [B,,B,]2 | [D,A,]2 [E,G,]2 [C,E,]2 [B,,F,]2 | [F,,A,]2 [A,,A,]2 [D,F,]4 | %24
 [D,A,]4 [B,,B,]2 [F,,A,]2 | [G,,G,]2 [D,F,]2 [C,E,]2 [B,,F,]2 | [A,,A,]2 [E,^G,]2 [A,,A,]4 | %27
 [B,,F,]4 [F,A,]2 G,2 | [E,B,]2 [F,A,]2 A,2 [D,D]2 | [B,,D]2 [A,,E]2 [D,D]4 | %30
 [D,A,]4 [A,,A,]2 [B,,F,]2 | [F,,F,]2 [B,,F,]2 [A,,A,]2 [D,A,]2 | [B,,B,]2 [B,,A,]2 [D,A,]4 | %33
 [D,A,]4 [F,A,]2 G,2 | [D,A,]2 [B,,D]2 [A,,E]2 [D,D]2 | [E,B,]2 [A,,C]2 [D,A,]4 | %36
 [B,,B,]4 [F,^A,]2 [G,B,]2 | [D,F,]2 [B,,^G,]2 [A,,A,]2 [D,A,]2 | [B,,B,]2 [A,,=C]2 [B,,B,]4 | %39
 G,4 [F,A,]2 [E,B,]2 | [A,,A,]2 [B,,F,]2 [G,,B,]2 [D,A,]2 | [A,,A,]2 [A,,E,]2 [D,F,]4 | %42
 [D,F,]4 [A,,E,]2 [C,A,]2 | [D,A,]2 [B,,B,]2 [F,,A,]2 [G,,G,]2 | [G,,G,]2 [A,,E,]2 [D,F,]4 | %45
 [A,,E,]4 [B,,B,]2 [D,A,]2 | [E,G,]2 [A,,A,]2 [D,A,]2 [G,,G,]2 | [A,,F,]2 [A,,E,]2 [D,F,]4 |] %48
V:4
 x8 | x2 D,2 x4 | x8 | x8 | x8 | x8 | x8 | x8 | x8 | x8 | x8 | x8 | x8 | x8 | x8 | x8 | G,2 x6 | %17
 x8 | x8 | x4 G,2 x2 | x8 | x8 | x8 | x8 | x8 | x8 | x8 | x6 G,2 | x4 A,2 x2 | x8 | x8 | x8 | x8 | %33
 x6 G,2 | x8 | x8 | x8 | x8 | x8 | G,4 x4 | x8 | x8 | x8 | x8 | x8 | x8 | x8 | x8 |] %48

